X:138
T:The Piper in the Meadow Straying
B:Terry "Cuz" Teahan "Sliabh Luachra on Parade" 1980
Z:Patrick Cavanagh
M:4/4
L:1/8
R:Set Dance
K:G
d2d>c B2B>A | G>FG>A B2G2 | A>Bc>A G2 F2 | G2B2 B2A2 | 
d2 d>c B2 B>A | G>FG>A B2 G2 | A>Bc>A G2 F2 | G2 B2 G2 z2 :| 
| A2 A>B c2 A2 | G>FG>B d2 B2 | d2d>d e2g2 | f>ed>^c d>AB>=c | 
d>ed>c B>cB>A | G>FG>A B2G2 | A>Bc>A G2F2 | G2B2 B2A2 | 
d>ed>c B>cB>A | G>FG>A B2G2 | A>Bc>A G2F2 | G2B2 G2z2 || 

